src/icons/refresh.svg

<svg xmlns="http://www.w3.org/2000/svg" width="512" height="512" viewBox="0 0 512 512">
    <path d="M353.1 322.4l72.9-84.9h-49.1c-1.7-21.1-8-41-17.8-58.6-20.9-37.3-57.5-64.6-101-72.5-.5-.1-1.2-.2-1.7-.3-.4-.1-.6-.1-1.1-.1-7.6-1.3-15.6-2-23.7-2h-.3c-68.9 0-126.7 48.1-141.6 112.6v.1c-.2.8-.4 1.7-.5 2.5-.1.4-.1.6-.2 1.1l-.3 1.6c-.1.6-.2 1.3-.4 2-.1.3-.1.5-.1.8l-.4 2.8v.1c-.7 4.8-1.2 9.7-1.5 14.4v.6c-.1 1.1-.1 2-.1 3.1 0 1.2-.1 2.5-.1 3.8 0 1.3 0 2.5.1 3.8 0 1.1.1 2 .1 3.1v.6c.2 4.9.7 9.8 1.5 14.4v.1l.4 2.8c.1.3.1.5.1.8.1.6.2 1.4.4 2l.3 1.6c.1.4.1.7.2 1.1.1.8.4 1.7.5 2.4v.1c15 64.5 72.9 112.6 141.9 112.7 32.5-.1 63.1-10.7 88.7-30.9l5.7-4.5-32.8-35.1-4.7 3.5c-16.8 12.3-36 18.4-56.9 18.4-53.5 0-97.1-43.2-97.1-97.1 0-53.9 43.5-96.7 97.1-96.7 50.3 0 93.2 35.4 98.3 85h-55.8l79 84.8z"/>
</svg>

<?xml version="1.0" encoding="UTF-8"?>
<svg width="512px" height="512px" viewBox="0 0 512 512" version="1.1" xmlns="http://www.w3.org/2000/svg" xmlns:xlink="http://www.w3.org/1999/xlink">
    <!-- Generator: Sketch 62 (91390) - https://sketch.com -->
    <title>refresh</title>
    <desc>Created with Sketch.</desc>
    <g id="refresh" stroke="none" stroke-width="1" fill="none" fill-rule="evenodd">
        <path d="M353.1,322.4 L426,237.5 L376.9,237.5 C375.2,216.4 368.9,196.5 359.1,178.9 C338.2,141.6 301.6,114.3 258.1,106.4 C257.6,106.3 256.9,106.2 256.4,106.1 C256,106 255.8,106 255.3,106 C247.7,104.7 239.7,104 231.6,104 L231.3,104 C162.4,104 104.6,152.1 89.7,216.6 L89.7,216.7 C89.5,217.5 89.3,218.4 89.2,219.2 C89.1,219.6 89.1,219.8 89,220.3 L88.7,221.9 C88.6,222.5 88.5,223.2 88.3,223.9 C88.2,224.2 88.2,224.4 88.2,224.7 L87.8,227.5 L87.8,227.6 C87.1,232.4 86.6,237.3 86.3,242 L86.3,242.6 C86.2,243.7 86.2,244.6 86.2,245.7 C86.2,246.9 86.1,248.2 86.1,249.5 C86.1,250.8 86.1,252 86.2,253.3 C86.2,254.4 86.3,255.3 86.3,256.4 L86.3,257 C86.5,261.9 87,266.8 87.8,271.4 L87.8,271.5 L88.2,274.3 C88.3,274.6 88.3,274.8 88.3,275.1 C88.4,275.7 88.5,276.5 88.7,277.1 L89,278.7 C89.1,279.1 89.1,279.4 89.2,279.8 C89.3,280.6 89.6,281.5 89.7,282.2 L89.7,282.3 C104.7,346.8 162.6,394.9 231.6,395 C264.1,394.9 294.7,384.3 320.3,364.1 L326,359.6 L293.2,324.5 L288.5,328 C271.7,340.3 252.5,346.4 231.6,346.4 C178.1,346.4 134.5,303.2 134.5,249.3 C134.5,195.4 178,152.6 231.6,152.6 C281.9,152.6 324.8,188 329.9,237.6 L274.1,237.6 L353.1,322.4 Z" id="Path" fill="#000000" fill-rule="nonzero"></path>
    </g>
</svg>
